X:174
T:Mother, When You Die Will You Leave Me Your Petticoat?
B:Terry "Cuz" Teahan "Sliabh Luachra on Parade" 1980
Z:Patrick Cavanagh
M:4/4
L:1/8
R:Reel
K:D
| E2FE E2FA | B2cA Bcd2 | DEDF E2FA | B2AF BAFD | 
E2FE E2FA | B2cA Bcdf | edcB A2Bc | dBAF FEE2 | 
| e2ec e2ce | e2fe edBc | d2fd d2Bc | dfed cBA2 | 
Be2c e2ce | e2fe edBc | dcB2 A2Bc | dBAF FEE2 || 

